X: 46
T:Bonny Breast Knot
% Nottingham Music Database
S:Sussex, via PR
M:4/4
L:1/4
K:G
A|"G"BG GA/2B/2|"C"c/2B/2A/2G/2 "D"FD|"G"GB GB|"G"GB "D7"d3/2c/2|
"G"BG GA/2B/2|"C"c/2B/2A/2G/2 "D"FD|"G"GB "D7"Ad/2c/2|"G"BG G::
z|"G"d3/2e/2 d3/2e/2|d/2c/2B/2A/2 G2|"Am"AB c/2B/2c/2d/2|
"D"eA AB/2c/2|"G"d3/2e/2 d3/2e/2|d/2c/2B/2A/2 G2|"D7"A2 D3/2F/2|"G"GB G:|


